X: 11440
T: Easy Club, The
R: reel
M: 4/4
K: Amajor
|:AEAc BFBd|ceef eAce|fefg af~f2|afec dBcB|
AEAc BFBd|ceef ecBA|fefg afec|dBcB A4:|
|:~f2af dfaf|~e2ae ceae|~f2af defg|afec ABBc|
A2 cA BcdB|cdec defg|agae faec|dBcB A4:|
|:faad daga|eaac caga|faad daga|ceeB BdcB|
A2 cA BcdB|cdec defg|agae faec|dBcB A4:|

